brandFactory_export/1.Light/Edificio_Casa_1Light.svg

<?xml version="1.0" encoding="UTF-8"?>
<svg width="24px" height="24px" viewBox="0 0 24 24" version="1.1" xmlns="http://www.w3.org/2000/svg" xmlns:xlink="http://www.w3.org/1999/xlink">
    <title>1.Light/Edificio_Casa_1Light</title>
    <g id="Symbols" stroke="none" stroke-width="1" fill="none" fill-rule="evenodd">
        <g id="1.Light/Edificio_Casa_1Light" fill="#5CB615" fill-rule="nonzero">
            <path d="M19.7394958,22.1815126 L19.7394958,1.44537815 C19.7394958,1.23361345 19.4773109,0.98487395 19.2521008,0.98487395 L4.45546218,0.98487395 C4.23361345,0.98487395 3.96806723,1.23361345 3.96806723,1.44201681 L3.96806723,22.1781513 C3.96806723,22.4033613 4.21344538,22.6386555 4.45546218,22.6386555 L9.31596639,22.6386555 L9.31596639,17.0151261 C9.31596639,16.7428571 9.53445378,16.5243697 9.80336134,16.5243697 L13.907563,16.5243697 C14.1764706,16.5243697 14.394958,16.7462185 14.394958,17.0151261 L14.394958,22.6386555 L19.2554622,22.6386555 C19.4941176,22.6386555 19.7394958,22.4067227 19.7394958,22.1815126 Z M10.287395,22.605042 L13.4201681,22.605042 L13.4201681,17.5058824 L10.2907563,17.5058824 L10.2907563,22.605042 L10.287395,22.605042 Z M19.2521008,0 C20.0151261,0 20.7142857,0.68907563 20.7142857,1.44537815 L20.7142857,22.1815126 C20.7142857,22.9478992 20.0319328,23.6235294 19.2554622,23.6235294 L4.45882353,23.6235294 C3.68235294,23.6235294 2.99998787,22.9478992 2.99998787,22.1815126 L2.99998787,1.44201681 C2.99663866,0.68907563 3.69243697,0 4.45546218,0 L19.2521008,0 Z M7.69243697,6.25882353 L9.82352941,6.25882353 L9.82352941,4.10420168 L7.68907563,4.10420168 L7.68907563,6.25882353 L7.69243697,6.25882353 Z M10.3109244,3.11932773 C10.5798319,3.11932773 10.7983193,3.34117647 10.7983193,3.61008403 L10.7983193,6.74957983 C10.7983193,7.02184874 10.5798319,7.24033613 10.3109244,7.24033613 L7.20168067,7.24033613 C6.93277311,7.24033613 6.71428571,7.01848739 6.71428571,6.74957983 L6.71428571,3.61008403 C6.71428571,3.33781513 6.93277311,3.11932773 7.20168067,3.11932773 L10.3109244,3.11932773 Z M13.8336134,6.25882353 L15.9680672,6.25882353 L15.9680672,4.10420168 L13.8336134,4.10420168 L13.8336134,6.25882353 Z M16.4521008,3.11932773 C16.7210084,3.11932773 16.9394958,3.34117647 16.9394958,3.61008403 L16.9394958,6.74957983 C16.9394958,7.02184874 16.7243697,7.24033613 16.4521008,7.24033613 L13.3462185,7.24033613 C13.0773109,7.24033613 12.8588235,7.01848739 12.8588235,6.74957983 L12.8588235,3.61008403 C12.8588235,3.33781513 13.0739496,3.11932773 13.3462185,3.11932773 L16.4521008,3.11932773 Z M7.69243697,12.4235294 L9.82689076,12.4235294 L9.82689076,10.2689076 L7.69243697,10.2689076 L7.69243697,12.4235294 Z M10.3109244,9.28403361 C10.5798319,9.28403361 10.7983193,9.50252101 10.7983193,9.77478992 L10.7983193,12.9142857 C10.7983193,13.1865546 10.5798319,13.405042 10.3109244,13.405042 L7.20168067,13.405042 C6.93277311,13.405042 6.71428571,13.1831933 6.71428571,12.9142857 L6.71428571,9.77478992 C6.71428571,9.50252101 6.93277311,9.28403361 7.20168067,9.28403361 L10.3109244,9.28403361 Z M13.8336134,12.4235294 L15.9680672,12.4235294 L15.9680672,10.2689076 L13.8336134,10.2689076 L13.8336134,12.4235294 Z M16.4521008,9.28403361 C16.7210084,9.28403361 16.9394958,9.50252101 16.9394958,9.77478992 L16.9394958,12.9142857 C16.9394958,13.1865546 16.7243697,13.405042 16.4521008,13.405042 L13.3462185,13.405042 C13.0773109,13.405042 12.8588235,13.1865546 12.8588235,12.9142857 L12.8588235,9.77142857 C12.8588235,9.49915966 13.0739496,9.28067227 13.3462185,9.28067227 L16.4521008,9.28403361 Z" id="Edificio_Casa_1Light"></path>
        </g>
    </g>
</svg>

<svg width="24" height="24" viewBox="0 0 24 24" xmlns="http://www.w3.org/2000/svg"><path d="M19.74 22.182V1.445c0-.211-.263-.46-.488-.46H4.455c-.221 0-.487.249-.487.457v20.736c0 .225.245.46.487.46h4.861v-5.623c0-.272.218-.49.487-.49h4.105a.49.49 0 01.487.49v5.624h4.86c.24 0 .484-.232.484-.457zm-9.453.423h3.133v-5.1h-3.13v5.1h-.003zM19.252 0c.763 0 1.462.69 1.462 1.445v20.737c0 .766-.682 1.442-1.459 1.442H4.46c-.777 0-1.459-.676-1.459-1.442V1.442C2.997.689 3.692 0 4.455 0h14.797zM7.692 6.259h2.132V4.104H7.689V6.26h.003zm2.619-3.14a.49.49 0 01.487.491v3.14c0 .272-.218.49-.487.49H7.2a.49.49 0 01-.487-.49V3.61c0-.272.219-.49.488-.49h3.109zm3.523 3.14h2.134V4.104h-2.134V6.26zm2.618-3.14a.49.49 0 01.487.491v3.14c0 .272-.215.49-.487.49h-3.106a.49.49 0 01-.487-.49V3.61c0-.272.215-.49.487-.49h3.106zm-8.76 9.305h2.135v-2.155H7.692v2.155zm2.619-3.14c.269 0 .487.219.487.49v3.14c0 .273-.218.491-.487.491H7.2a.49.49 0 01-.487-.49v-3.14c0-.272.219-.491.488-.491h3.109zm3.523 3.14h2.134v-2.155h-2.134v2.155zm2.618-3.14c.269 0 .487.219.487.49v3.14c0 .273-.215.491-.487.491h-3.106a.488.488 0 01-.487-.49V9.77c0-.272.215-.49.487-.49l3.106.003z" fill="#5CB615" fill-rule="nonzero"/></svg>
